X: 1
T: O'Leary's Cow
M: 4/4
L: 1/8
R: reel
K: Emin
|:EB B2 EBdB|BAGA FD D2|EB B2 ABde|fedf e2 ed|
Be e2 Bege|edef g2 ga|bgaf gedB|AdBA GAFD:|
|:E4 EDB,D|EDEF G2 GF|Gg g2 gede|gedB A2 AG|
Ad d2 edBd|edef g2 ga|bgaf gedB|AdBA GAFD:|
